images_elementary_svg/cmd/sc_pasteonlyformula.svg

<?xml version="1.0" encoding="UTF-8" standalone="no"?>
<svg
   xmlns:dc="http://purl.org/dc/elements/1.1/"
   xmlns:cc="http://creativecommons.org/ns#"
   xmlns:rdf="http://www.w3.org/1999/02/22-rdf-syntax-ns#"
   xmlns:svg="http://www.w3.org/2000/svg"
   xmlns="http://www.w3.org/2000/svg"
   xmlns:xlink="http://www.w3.org/1999/xlink"
   xmlns:sodipodi="http://sodipodi.sourceforge.net/DTD/sodipodi-0.dtd"
   xmlns:inkscape="http://www.inkscape.org/namespaces/inkscape"
   version="1.1"
   width="16"
   height="16"
   id="svg3375"
   sodipodi:docname="sc_pasteonlyformula.svg"
   inkscape:version="0.92.3 (unknown)"
   inkscape:export-filename="/home/rizmut/Dokumen/Rizmut/Github/libreoffice-style-elementary/images_elementary/cmd/sc_pasteonlyformula.png"
   inkscape:export-xdpi="96"
   inkscape:export-ydpi="96">
  <sodipodi:namedview
     pagecolor="#ffffff"
     bordercolor="#666666"
     borderopacity="1"
     objecttolerance="10"
     gridtolerance="10"
     guidetolerance="10"
     inkscape:pageopacity="0"
     inkscape:pageshadow="2"
     inkscape:window-width="1366"
     inkscape:window-height="706"
     id="namedview62"
     showgrid="true"
     inkscape:zoom="14.75"
     inkscape:cx="6.1754358"
     inkscape:cy="2.480587"
     inkscape:window-x="0"
     inkscape:window-y="0"
     inkscape:window-maximized="1"
     inkscape:current-layer="svg3375">
    <inkscape:grid
       type="xygrid"
       id="grid869" />
  </sodipodi:namedview>
  <defs
     id="defs3377">
    <radialGradient
       cx="24.837126"
       cy="36.421127"
       r="15.644737"
       fx="24.837126"
       fy="36.421127"
       id="radialGradient4123"
       xlink:href="#linearGradient8662-6"
       gradientUnits="userSpaceOnUse"
       gradientTransform="matrix(-0.25568731,0,0,-0.17604034,13.353337,18.657486)" />
    <linearGradient
       id="linearGradient8662-6">
      <stop
         id="stop8664-2"
         style="stop-color:#000000;stop-opacity:1"
         offset="0" />
      <stop
         id="stop8666-6"
         style="stop-color:#000000;stop-opacity:0"
         offset="1" />
    </linearGradient>
    <linearGradient
       x1="25.46862"
       y1="32.841259"
       x2="25.46862"
       y2="2.7235911"
       id="linearGradient4125"
       xlink:href="#linearGradient3242-7-3-8-0-4-58-06"
       gradientUnits="userSpaceOnUse"
       gradientTransform="matrix(0.27962938,0,0,-0.23975449,1.0220452,14.718559)" />
    <linearGradient
       x1="20.796995"
       y1="20.64884"
       x2="37.473785"
       y2="20.64884"
       id="linearGradient4130"
       xlink:href="#linearGradient4087-7"
       gradientUnits="userSpaceOnUse"
       gradientTransform="matrix(0,0.28097453,0.327705,0,1.5205692,1.7475728)" />
    <linearGradient
       id="linearGradient4087-7">
      <stop
         id="stop4089-5"
         style="stop-color:#ffffff;stop-opacity:1"
         offset="0" />
      <stop
         id="stop4091-6"
         style="stop-color:#ffffff;stop-opacity:0.23529412"
         offset="0.51153916" />
      <stop
         id="stop4093-9"
         style="stop-color:#ffffff;stop-opacity:0.15686275"
         offset="0.58522105" />
      <stop
         id="stop4095-8"
         style="stop-color:#ffffff;stop-opacity:0.39215687"
         offset="1" />
    </linearGradient>
    <linearGradient
       x1="23.99999"
       y1="7.5555444"
       x2="23.99999"
       y2="40.444435"
       id="linearGradient3069"
       xlink:href="#linearGradient3977-8"
       gradientUnits="userSpaceOnUse"
       gradientTransform="matrix(0.18918906,0,0,0.24324323,5.4591875,4.162165)" />
    <linearGradient
       id="linearGradient3977-8">
      <stop
         id="stop3979-4"
         style="stop-color:#ffffff;stop-opacity:1"
         offset="0" />
      <stop
         id="stop3981-3"
         style="stop-color:#ffffff;stop-opacity:0.23529412"
         offset="0" />
      <stop
         id="stop3983-1"
         style="stop-color:#ffffff;stop-opacity:0.15686275"
         offset="1" />
      <stop
         id="stop3985-4"
         style="stop-color:#ffffff;stop-opacity:0.39215687"
         offset="1" />
    </linearGradient>
    <linearGradient
       x1="25.132275"
       y1="0.98520643"
       x2="25.132275"
       y2="47.013336"
       id="linearGradient3072"
       xlink:href="#linearGradient3600-4-4"
       gradientUnits="userSpaceOnUse"
       gradientTransform="matrix(0.25714449,0,0,0.23901336,3.8285322,3.897003)" />
    <linearGradient
       id="linearGradient3600-4-4">
      <stop
         id="stop3602-7-3"
         style="stop-color:#f4f4f4;stop-opacity:1"
         offset="0" />
      <stop
         id="stop3604-6-0"
         style="stop-color:#dbdbdb;stop-opacity:1"
         offset="1" />
    </linearGradient>
    <linearGradient
       id="linearGradient3242-7-3-8-0-4-58-06">
      <stop
         id="stop3244-5-8-5-6-4-3-8"
         style="stop-color:#cdf87e;stop-opacity:1"
         offset="0" />
      <stop
         id="stop3246-9-5-1-5-3-0-7"
         style="stop-color:#a2e34f;stop-opacity:1"
         offset="0.26238" />
      <stop
         id="stop3248-7-2-0-7-5-35-9"
         style="stop-color:#68b723;stop-opacity:1"
         offset="0.66093999" />
      <stop
         id="stop3250-8-2-8-5-6-40-4"
         style="stop-color:#1d7e0d;stop-opacity:1"
         offset="1" />
    </linearGradient>
    <linearGradient
       y2="-39.125"
       x2="26"
       y1="-13.625"
       x1="25.5"
       gradientTransform="matrix(0.36666672,0,0,0.40625004,-1.983334,1.9531243)"
       gradientUnits="userSpaceOnUse"
       id="linearGradient5021"
       xlink:href="#linearGradient5772-1" />
    <linearGradient
       id="linearGradient5772-1">
      <stop
         style="stop-color:#e2b369;stop-opacity:1"
         offset="0"
         id="stop5774-8" />
      <stop
         style="stop-color:#c79b55;stop-opacity:1"
         offset="1"
         id="stop5776-7" />
    </linearGradient>
    <linearGradient
       y2="-40.204414"
       x2="14.388891"
       y1="-8.8407707"
       x1="14.388891"
       gradientTransform="matrix(0.32142842,0,0,0.36666664,-0.874998,0.98333212)"
       gradientUnits="userSpaceOnUse"
       id="linearGradient5025"
       xlink:href="#linearGradient4455-7" />
    <linearGradient
       id="linearGradient4455-7">
      <stop
         offset="0"
         style="stop-color:#ffffff;stop-opacity:1"
         id="stop4457-5" />
      <stop
         offset="0.06249999"
         style="stop-color:#ffffff;stop-opacity:0.23529412"
         id="stop4459-3" />
      <stop
         offset="0.96279675"
         style="stop-color:#ffffff;stop-opacity:0.15686275"
         id="stop4461-5" />
      <stop
         offset="1"
         style="stop-color:#ffffff;stop-opacity:0.39215687"
         id="stop4463-6" />
    </linearGradient>
    <linearGradient
       y2="13.999999"
       x2="25"
       y1="3.999999"
       x1="25"
       gradientTransform="translate(-16,-5.9999971)"
       gradientUnits="userSpaceOnUse"
       id="linearGradient4997"
       xlink:href="#radialGradient4536-2" />
    <radialGradient
       cx="23.896"
       cy="3.99"
       r="20.396999"
       id="radialGradient4536-2"
       gradientUnits="userSpaceOnUse"
       gradientTransform="matrix(0,1.2316483,-1.625754,0,18.486966,-28.721977)">
      <stop
         id="stop4538-9"
         style="stop-color:#ffffff;stop-opacity:1"
         offset="0" />
      <stop
         id="stop4540-1"
         style="stop-color:#dddddd;stop-opacity:1"
         offset="0.06562372" />
      <stop
         id="stop4542-2"
         style="stop-color:#abacae;stop-opacity:1"
         offset="0.66093999" />
      <stop
         id="stop4544-7"
         style="stop-color:#89898b;stop-opacity:1"
         offset="1" />
    </radialGradient>
    <linearGradient
       y2="8"
       x2="24.498007"
       y1="3.9980428"
       x1="24.498007"
       gradientTransform="translate(-14.99602,-3.9999971)"
       gradientUnits="userSpaceOnUse"
       id="linearGradient5001"
       xlink:href="#linearGradient5071-3-1-8" />
    <linearGradient
       id="linearGradient5071-3-1-8">
      <stop
         id="stop5073-3-6-8"
         offset="0"
         style="stop-color:#ffffff;stop-opacity:1;" />
      <stop
         id="stop5075-6-9-9"
         offset="1"
         style="stop-color:#ffffff;stop-opacity:0;" />
    </linearGradient>
    <linearGradient
       id="c"
       gradientUnits="userSpaceOnUse"
       x1="16.08333"
       x2="13.280817"
       xlink:href="#a"
       y1="15.414468"
       y2="12.051452" />
    <linearGradient
       id="a">
      <stop
         offset="0"
         stop-color="#1f1f1f"
         id="stop2" />
      <stop
         offset="1"
         stop-color="#5c5c5c"
         id="stop4" />
    </linearGradient>
    <linearGradient
       gradientTransform="matrix(0.5510148,0,0,0.55497844,4.3989036,3.7142835)"
       id="b"
       gradientUnits="userSpaceOnUse"
       x1="11.081266"
       x2="6.0308242"
       xlink:href="#a"
       y1="11.824821"
       y2="5.7642899" />
    <linearGradient
       inkscape:collect="always"
       xlink:href="#a"
       id="linearGradient942"
       gradientUnits="userSpaceOnUse"
       x1="16.08333"
       y1="15.414468"
       x2="13.280817"
       y2="12.051452" />
  </defs>
  <metadata
     id="metadata3380">
    <rdf:RDF>
      <cc:Work
         rdf:about="">
        <dc:format>image/svg+xml</dc:format>
        <dc:type
           rdf:resource="http://purl.org/dc/dcmitype/StillImage" />
        <dc:title />
      </cc:Work>
    </rdf:RDF>
  </metadata>
  <rect
     height="13"
     id="rect4613"
     rx="1"
     ry="1"
     style="color:#000000;display:block;overflow:visible;visibility:visible;fill:url(#linearGradient5021);fill-opacity:1;fill-rule:nonzero;stroke:#66430b;stroke-width:0.99999988;stroke-linecap:butt;stroke-linejoin:miter;stroke-miterlimit:4;stroke-dasharray:none;stroke-dashoffset:0;stroke-opacity:0.49803922;marker:none;enable-background:accumulate"
     transform="scale(1,-1)"
     width="11"
     x="1.5"
     y="-14.5" />
  <rect
     height="11"
     id="rect5786"
     style="color:#000000;display:block;overflow:visible;visibility:visible;opacity:0.5;fill:none;stroke:url(#linearGradient5025);stroke-width:0.99999988;stroke-linecap:butt;stroke-linejoin:miter;stroke-miterlimit:4;stroke-dasharray:none;stroke-dashoffset:0;stroke-opacity:1;marker:none;enable-background:accumulate"
     transform="scale(1,-1)"
     width="9"
     x="2.5"
     y="-13.499998" />
  <path
     d="m 9.5,4.5000017 c 0.97227,0.04419 1,-1 1,-1 l -1,-1 7e-5,-1 c 0,0 0.06876,-1.01939512 -1,-1.00000002 l -3,0.03108 C 4.474186,0.57347468 4.49101,1.5321987 4.49101,1.5321987 l 0.009,0.967803 -1,1 c 0,0 0.11613,0.955805 0.99999,0.999999 z"
     id="path5584"
     style="color:#000000;display:block;overflow:visible;visibility:visible;fill:url(#linearGradient4997);fill-opacity:1;fill-rule:nonzero;stroke:#000000;stroke-width:1;stroke-linecap:butt;stroke-linejoin:miter;stroke-miterlimit:4;stroke-dasharray:none;stroke-dashoffset:0;stroke-opacity:0.34509804;marker:none;enable-background:accumulate" />
  <path
     d="m 5.00398,4.0000027 0,-2 c -0.0394,-0.631556 0.20798,-1.03361502 1,-1 l 2,0 c 0.46307,0.07386 0.94201,0.11598 1,1 l 0,2 -1,-2 -2,0 z"
     id="path5377"
     style="color:#000000;display:inline;overflow:visible;visibility:visible;fill:url(#linearGradient5001);fill-opacity:1;fill-rule:nonzero;stroke:none;stroke-width:1;marker:none;enable-background:accumulate" />
  <path
     style="opacity:0.1;fill:none;fill-rule:evenodd;stroke:#ffffff;stroke-width:1px;stroke-linecap:round;stroke-linejoin:miter;stroke-opacity:1"
     d="m 4.507121,4.5000017 5,0"
     id="path4453" />
  <path
     style="display:inline;fill:url(#linearGradient3072);fill-opacity:1;stroke:#000000;stroke-width:0.99992192;stroke-linecap:butt;stroke-linejoin:round;stroke-miterlimit:4;stroke-dasharray:none;stroke-dashoffset:0;stroke-opacity:0.34509804"
     id="path4160-3-9"
     d="m 3.497905,4.505777 c 2.0623745,0 11.985174,0.062693 11.985174,0.062693 l 1.2e-5,10.999366 -11.985186,-0.06198 V 4.505788 Z"
     inkscape:connector-curvature="0"
     sodipodi:nodetypes="cccccc" />
  <path
     style="fill:none;stroke:url(#linearGradient3069);stroke-width:1;stroke-linecap:round;stroke-linejoin:miter;stroke-miterlimit:4;stroke-dasharray:none;stroke-dashoffset:0;stroke-opacity:1"
     id="rect6741-1-2"
     d="M 14.440678,14.542373 4.4979437,14.505814 V 5.505816 l 9.9427343,0.036557 z"
     inkscape:connector-curvature="0"
     sodipodi:nodetypes="ccccc" />
  <path
     inkscape:connector-curvature="0"
     d="M 10.264705,9.1858698 H 8.8712948 V 14.039622 H 7.9658296 V 9.1858698 H 7 V 8.7602799 L 7.9658296,8.4461539 V 8.1269613 q 0,-1.0133095 0.4376415,-1.5199642 0.4426717,-0.5066547 1.3581977,-0.5066547 0.5281882,0 1.0714672,0.1874622 L 10.591679,7.0021879 Q 10.123855,6.8501914 9.7717298,6.8501914 q -0.457763,0 -0.679099,0.3039929 -0.221336,0.3039928 -0.221336,0.962644 v 0.3597248 h 1.3934102 z"
     style="opacity:0.66000001;fill:url(#b);stroke:#000000;stroke-width:0.558523;stroke-linecap:round;stroke-linejoin:round"
     id="path16" />
  <g
     style="opacity:0.66000001;fill:url(#c);stroke:#000000;stroke-width:0.56050301;stroke-linecap:round;stroke-linejoin:round"
     transform="matrix(0.5534064,0,0,0.55258006,2.1959258,2.9736998)"
     id="g24">
    <path
       style="fill:url(#linearGradient942)"
       inkscape:connector-curvature="0"
       d="m 17.715867,16.334828 -1.919966,-2.720373 h 1.038504 l 1.433642,2.097271 1.418444,-2.097271 h 1.028372 l -1.919965,2.720373 2.026349,2.841955 h -1.038504 l -1.514696,-2.218852 -1.534959,2.218852 h -1.028373 z"
       id="path20" />
  </g>
</svg>

<?xml version="1.0" encoding="UTF-8" standalone="no"?>
<svg xmlns:rdf="http://www.w3.org/1999/02/22-rdf-syntax-ns#" xmlns="http://www.w3.org/2000/svg" height="16" width="16" version="1.1" xmlns:cc="http://creativecommons.org/ns#" xmlns:xlink="http://www.w3.org/1999/xlink" xmlns:dc="http://purl.org/dc/elements/1.1/">
 <defs>
  <linearGradient id="linearGradient3069" y2="40.444" gradientUnits="userSpaceOnUse" x2="24" gradientTransform="matrix(.18919 0 0 .24324 5.4592 4.1622)" y1="7.5555" x1="24">
   <stop stop-color="#fff" offset="0"/>
   <stop stop-color="#fff" stop-opacity=".23529" offset="0"/>
   <stop stop-color="#fff" stop-opacity=".15686" offset="1"/>
   <stop stop-color="#fff" stop-opacity=".39216" offset="1"/>
  </linearGradient>
  <linearGradient id="linearGradient3072" y2="47.013" gradientUnits="userSpaceOnUse" x2="25.132" gradientTransform="matrix(.25714 0 0 .23901 3.8285 3.897)" y1=".98521" x1="25.132">
   <stop stop-color="#f4f4f4" offset="0"/>
   <stop stop-color="#dbdbdb" offset="1"/>
  </linearGradient>
  <linearGradient id="linearGradient5021" y2="-39.125" gradientUnits="userSpaceOnUse" y1="-13.625" gradientTransform="matrix(.36667 0 0 .40625 -1.9833 1.9531)" x2="26" x1="25.5">
   <stop stop-color="#e2b369" offset="0"/>
   <stop stop-color="#c79b55" offset="1"/>
  </linearGradient>
  <linearGradient id="linearGradient5025" y2="-40.204" gradientUnits="userSpaceOnUse" y1="-8.8408" gradientTransform="matrix(.32143 0 0 .36667 -0.875 .98333)" x2="14.389" x1="14.389">
   <stop stop-color="#fff" offset="0"/>
   <stop stop-color="#fff" stop-opacity=".23529" offset="0.0625"/>
   <stop stop-color="#fff" stop-opacity=".15686" offset=".96280"/>
   <stop stop-color="#fff" stop-opacity=".39216" offset="1"/>
  </linearGradient>
  <linearGradient id="linearGradient4997" y2="14" gradientUnits="userSpaceOnUse" y1="4" gradientTransform="translate(-16 -6)" x2="25" x1="25">
   <stop stop-color="#fff" offset="0"/>
   <stop stop-color="#ddd" offset=".065624"/>
   <stop stop-color="#abacae" offset=".66094"/>
   <stop stop-color="#89898b" offset="1"/>
  </linearGradient>
  <linearGradient id="linearGradient5001" y2="8" gradientUnits="userSpaceOnUse" y1="3.998" gradientTransform="translate(-14.996 -4)" x2="24.498" x1="24.498">
   <stop stop-color="#fff" offset="0"/>
   <stop stop-color="#fff" stop-opacity="0" offset="1"/>
  </linearGradient>
  <linearGradient id="c" y2="12.051" xlink:href="#a" gradientUnits="userSpaceOnUse" y1="15.414" x2="13.281" x1="16.083"/>
  <linearGradient id="a">
   <stop stop-color="#1f1f1f" offset="0"/>
   <stop stop-color="#5c5c5c" offset="1"/>
  </linearGradient>
  <linearGradient id="b" y2="5.7643" xlink:href="#a" gradientUnits="userSpaceOnUse" y1="11.825" gradientTransform="matrix(.55101 0 0 .55498 4.3989 3.7143)" x2="6.0308" x1="11.081"/>
 </defs>
 <metadata>
  <rdf:RDF>
   <cc:Work rdf:about="">
    <dc:format>image/svg+xml</dc:format>
    <dc:type rdf:resource="http://purl.org/dc/dcmitype/StillImage"/>
    <dc:title/>
   </cc:Work>
  </rdf:RDF>
 </metadata>
 <g>
  <rect transform="scale(1,-1)" stroke="#66430b" fill="url(#linearGradient5021)" style="color:#000000" rx="1" ry="1" width="11" height="13" stroke-opacity=".49804" y="-14.5" x="1.5" display="block"/>
  <rect opacity=".5" style="color:#000000" display="block" transform="scale(1,-1)" height="11" width="9" stroke="url(#linearGradient5025)" y="-13.5" x="2.5" fill="none"/>
  <path style="color:#000000" d="m9.5 4.5c0.97227 0.04419 1-1 1-1l-1-1 0.00007-1s0.06876-1.0194-1-1l-3 0.03108c-1.0259 0.04239-1.0091 1.0011-1.0091 1.0011l0.009 0.9678-1 1s0.11613 0.9558 0.99999 1z" stroke-opacity=".34510" display="block" stroke="#000" fill="url(#linearGradient4997)"/>
 </g>
 <path style="color:#000000" d="m5.004 4v-2c-0.0394-0.63156 0.20798-1.0336 1-1h2c0.46307 0.07386 0.94201 0.11598 1 1v2l-1-2h-2z" fill="url(#linearGradient5001)"/>
 <path opacity=".1" d="m4.5071 4.5h5" stroke="#fff" stroke-linecap="round" stroke-width="1px" fill="none"/>
 <path stroke-linejoin="round" d="m3.4979 4.5058c2.0624 0 11.985 0.062693 11.985 0.062693l0.000012 10.999-11.985-0.06198v-11z" stroke-opacity=".34510" stroke="#000" stroke-width=".99992" fill="url(#linearGradient3072)"/>
 <g stroke-linecap="round">
  <path d="m14.441 14.542-9.9431-0.036v-9.0002l9.9427 0.036557z" stroke="url(#linearGradient3069)" fill="none"/>
  <path opacity="0.66" stroke-linejoin="round" d="m10.265 9.1859h-1.3937v4.8541h-0.9055v-4.8541h-0.9658v-0.4256l0.9658-0.3141v-0.3192q0-1.0133 0.43764-1.52 0.44267-0.50665 1.3582-0.50665 0.52819 0 1.0715 0.18746l-0.241 0.7143q-0.468-0.152-0.8203-0.152-0.45776 0-0.6791 0.30399t-0.22134 0.96264v0.35972h1.3934z" stroke="#000" stroke-width=".55852" fill="url(#b)"/>
  <g opacity="0.66" stroke-linejoin="round" transform="matrix(.55341 0 0 .55258 2.1959 2.9737)" stroke="#000" stroke-width=".56050" fill="url(#c)">
   <path fill="url(#c)" d="m17.716 16.335-1.92-2.7204h1.0385l1.4336 2.0973 1.4184-2.0973h1.0284l-1.92 2.7204 2.0263 2.842h-1.0385l-1.5147-2.2189-1.535 2.2189h-1.0284z"/>
  </g>
 </g>
</svg>
